X:124
T: Totenamt
N: Q1061E
O: Mitteleuropa, Deutschland / Frankreich, Lothringen
N: Melodievergleich zu Q0061, anderes Lied: "Kirchhofreiter" .
R: Ballade, ???
M: 4/4
L: 1/8
K: G
D | D3GG2G2 | =F2GA_B2
A2 | G2G2AAA2 | D2G2=F2z
D | A3_BccAc | _BABAG2
G2 | D2E2=F2G2 | _BAGFG2z

@@@ Tune index: 1000
